X: 632
T: You rouge you dar'n't meddle me
C: anon.
O: Ireland
B: Francis O'Neill: "The Dance Music of Ireland" (1907) no. 632
R: Reel
Z: Transcribed by Frank Nordberg - http://www.musicaviva.com
F: http://www.musicaviva.com/abc/tunes/ireland/oneill-1001/oneill-1001-063
2.abc
M: C|
L: 1/8
K: Am
AB|cABG AGE^F|GABc dBGB|cABG AGED|EAAB A2:|E2|ABcd e2e^f|ge^fd ecAG|
ABcd e2e^d|eaag a2a2|ABcd ede^f|ge^fd ecAB|cABG AGED|EAAB A2|]
W:
W:
W: From Musica Viva - http://www.musicaviva.com
W: the Internet center for free sheet music downloads.


